%
O1000 (CNC-TABLE-264X350X18-MATRIX-Y100-X95)
G17
( --- Initialisation AW --- )
G0 G40 G49 G80 G21
( --- Go To Machine Origin --- )
G54
(Tool # 12 - Diameter 8. D12 H12)
T12 M6 D12 H12
S10000 M4
M8
G54
( ---- Start of s1-drill-f8-cnc-table-264x350 ---- )
G0 G54 Z0  ; move up to tool_z_level
G0 G54 A-0
G0 Z10
( ------------------------------------- )
( S1-DRILL-F8-CNC-TABLE-264X350 - DRILL )
( ------------------------------------- )
G0 X25. Y-100. Z5.
 Z2.
G1 Z-2. F125
G0 Z2.
 Z0.
G1 Z-4.
G0 Z2.
 Z-2.
G1 Z-6.
G0 Z2.
 Z-4.
G1 Z-8.
G0 Z2.
 Z-6.
G1 Z-10.
G0 Z2.
 Z-8.
G1 Z-12.
G0 Z2.
 Z-10.
G1 Z-14.
G0 Z2.
 Z-12.
G1 Z-16.
G0 Z2.
 Z-14.
G1 Z-18.
G0 Z2.
 Z-16.
G1 Z-19.
G0 Z5.
 Y0.
 Z2.
G1 Z-2.
G0 Z2.
 Z0.
G1 Z-4.
G0 Z2.
 Z-2.
G1 Z-6.
G0 Z2.
 Z-4.
G1 Z-8.
G0 Z2.
 Z-6.
G1 Z-10.
G0 Z2.
 Z-8.
G1 Z-12.
G0 Z2.
 Z-10.
G1 Z-14.
G0 Z2.
 Z-12.
G1 Z-16.
G0 Z2.
 Z-14.
G1 Z-18.
G0 Z2.
 Z-16.
G1 Z-19.
G0 Z5.
 Y100.
 Z2.
G1 Z-2.
G0 Z2.
 Z0.
G1 Z-4.
G0 Z2.
 Z-2.
G1 Z-6.
G0 Z2.
 Z-4.
G1 Z-8.
G0 Z2.
 Z-6.
G1 Z-10.
G0 Z2.
 Z-8.
G1 Z-12.
G0 Z2.
 Z-10.
G1 Z-14.
G0 Z2.
 Z-12.
G1 Z-16.
G0 Z2.
 Z-14.
G1 Z-18.
G0 Z2.
 Z-16.
G1 Z-19.
G0 Z5.
 X120.
 Z2.
G1 Z-2.
G0 Z2.
 Z0.
G1 Z-4.
G0 Z2.
 Z-2.
G1 Z-6.
G0 Z2.
 Z-4.
G1 Z-8.
G0 Z2.
 Z-6.
G1 Z-10.
G0 Z2.
 Z-8.
G1 Z-12.
G0 Z2.
 Z-10.
G1 Z-14.
G0 Z2.
 Z-12.
G1 Z-16.
G0 Z2.
 Z-14.
G1 Z-18.
G0 Z2.
 Z-16.
G1 Z-19.
G0 Z5.
 Y0.
 Z2.
G1 Z-2.
G0 Z2.
 Z0.
G1 Z-4.
G0 Z2.
 Z-2.
G1 Z-6.
G0 Z2.
 Z-4.
G1 Z-8.
G0 Z2.
 Z-6.
G1 Z-10.
G0 Z2.
 Z-8.
G1 Z-12.
G0 Z2.
 Z-10.
G1 Z-14.
G0 Z2.
 Z-12.
G1 Z-16.
G0 Z2.
 Z-14.
G1 Z-18.
G0 Z2.
 Z-16.
G1 Z-19.
G0 Z5.
 Y-100.
 Z2.
G1 Z-2.
G0 Z2.
 Z0.
G1 Z-4.
G0 Z2.
 Z-2.
G1 Z-6.
G0 Z2.
 Z-4.
G1 Z-8.
G0 Z2.
 Z-6.
G1 Z-10.
G0 Z2.
 Z-8.
G1 Z-12.
G0 Z2.
 Z-10.
G1 Z-14.
G0 Z2.
 Z-12.
G1 Z-16.
G0 Z2.
 Z-14.
G1 Z-18.
G0 Z2.
 Z-16.
G1 Z-19.
G0 Z5.
 X215.
 Z2.
G1 Z-2.
G0 Z2.
 Z0.
G1 Z-4.
G0 Z2.
 Z-2.
G1 Z-6.
G0 Z2.
 Z-4.
G1 Z-8.
G0 Z2.
 Z-6.
G1 Z-10.
G0 Z2.
 Z-8.
G1 Z-12.
G0 Z2.
 Z-10.
G1 Z-14.
G0 Z2.
 Z-12.
G1 Z-16.
G0 Z2.
 Z-14.
G1 Z-18.
G0 Z2.
 Z-16.
G1 Z-19.
G0 Z5.
 Y0.
 Z2.
G1 Z-2.
G0 Z2.
 Z0.
G1 Z-4.
G0 Z2.
 Z-2.
G1 Z-6.
G0 Z2.
 Z-4.
G1 Z-8.
G0 Z2.
 Z-6.
G1 Z-10.
G0 Z2.
 Z-8.
G1 Z-12.
G0 Z2.
 Z-10.
G1 Z-14.
G0 Z2.
 Z-12.
G1 Z-16.
G0 Z2.
 Z-14.
G1 Z-18.
G0 Z2.
 Z-16.
G1 Z-19.
G0 Z5.
 Y100.
 Z2.
G1 Z-2.
G0 Z2.
 Z0.
G1 Z-4.
G0 Z2.
 Z-2.
G1 Z-6.
G0 Z2.
 Z-4.
G1 Z-8.
G0 Z2.
 Z-6.
G1 Z-10.
G0 Z2.
 Z-8.
G1 Z-12.
G0 Z2.
 Z-10.
G1 Z-14.
G0 Z2.
 Z-12.
G1 Z-16.
G0 Z2.
 Z-14.
G1 Z-18.
G0 Z2.
 Z-16.
G1 Z-19.
G0 Z5.
 X310.
 Z2.
G1 Z-2.
G0 Z2.
 Z0.
G1 Z-4.
G0 Z2.
 Z-2.
G1 Z-6.
G0 Z2.
 Z-4.
G1 Z-8.
G0 Z2.
 Z-6.
G1 Z-10.
G0 Z2.
 Z-8.
G1 Z-12.
G0 Z2.
 Z-10.
G1 Z-14.
G0 Z2.
 Z-12.
G1 Z-16.
G0 Z2.
 Z-14.
G1 Z-18.
G0 Z2.
 Z-16.
G1 Z-19.
G0 Z5.
 Y0.
 Z2.
G1 Z-2.
G0 Z2.
 Z0.
G1 Z-4.
G0 Z2.
 Z-2.
G1 Z-6.
G0 Z2.
 Z-4.
G1 Z-8.
G0 Z2.
 Z-6.
G1 Z-10.
G0 Z2.
 Z-8.
G1 Z-12.
G0 Z2.
 Z-10.
G1 Z-14.
G0 Z2.
 Z-12.
G1 Z-16.
G0 Z2.
 Z-14.
G1 Z-18.
G0 Z2.
 Z-16.
G1 Z-19.
G0 Z5.
 Y-100.
 Z2.
G1 Z-2.
G0 Z2.
 Z0.
G1 Z-4.
G0 Z2.
 Z-2.
G1 Z-6.
G0 Z2.
 Z-4.
G1 Z-8.
G0 Z2.
 Z-6.
G1 Z-10.
G0 Z2.
 Z-8.
G1 Z-12.
G0 Z2.
 Z-10.
G1 Z-14.
G0 Z2.
 Z-12.
G1 Z-16.
G0 Z2.
 Z-14.
G1 Z-18.
G0 Z2.
 Z-16.
G1 Z-19.
G0 Z5.
( ---- End of s1-drill-f8-cnc-table-264x350 ---- )
M9 M5
M30
G0 Z100
%