%
O1000 (CNC-TABLE-264X350X18-MATRIX-Y100-X95)
G17
( --- Initialisation AW --- )
G0 G40 G49 G80 G21
( --- Go To Machine Origin --- )
G54
(Tool # 12 - Diameter 8. D12 H12)
T12 M6 D12 H12
S10000 M4
M8
G54
( ---- Start of s2-pocket-f8-cnc-table-264x350-r3 ---- )
G0 G54 Z0  ; move up to tool_z_level
G0 G54 A-0
G0 Z10
( ------------------------------------------- )
( S2-POCKET-F8-CNC-TABLE-264X350-R3 - PROFILE )
( ------------------------------------------- )
G0 X25. Y-103.9 Z5.
 Z2.
G1 Z0. F125
G3 X25. Y-103.9 Z-1.983 I0. J3.9
 X25. Y-103.9 Z-3.967 I0. J3.9
 X25. Y-103.9 Z-5.95 I0. J3.9
 X25. Y-103.9 Z-7.933 I0. J3.9
 X25. Y-103.9 Z-9.917 I0. J3.9
 X25. Y-103.9 Z-11.9 I0. J3.9
 X25. Y-103.9 Z-12. I0. J3.9 F1000
 X25. Y-103.9 I0. J3.9
G0 Z5.
 Y-3.9
 Z2.
G1 Z0. F125
G3 X25. Y-3.9 Z-1.983 I0. J3.9
 X25. Y-3.9 Z-3.967 I0. J3.9
 X25. Y-3.9 Z-5.95 I0. J3.9
 X25. Y-3.9 Z-7.933 I0. J3.9
 X25. Y-3.9 Z-9.917 I0. J3.9
 X25. Y-3.9 Z-11.9 I0. J3.9
 X25. Y-3.9 Z-12. I0. J3.9 F1000
 X25. Y-3.9 I0. J3.9
G0 Z5.
 Y96.1
 Z2.
G1 Z0. F125
G3 X25. Y96.1 Z-1.983 I0. J3.9
 X25. Y96.1 Z-3.967 I0. J3.9
 X25. Y96.1 Z-5.95 I0. J3.9
 X25. Y96.1 Z-7.933 I0. J3.9
 X25. Y96.1 Z-9.917 I0. J3.9
 X25. Y96.1 Z-11.9 I0. J3.9
 X25. Y96.1 Z-12. I0. J3.9 F1000
 X25. Y96.1 I0. J3.9
G0 Z5.
 X120.
 Z2.
G1 Z0. F125
G3 X120. Y96.1 Z-1.983 I0. J3.9
 X120. Y96.1 Z-3.967 I0. J3.9
 X120. Y96.1 Z-5.95 I0. J3.9
 X120. Y96.1 Z-7.933 I0. J3.9
 X120. Y96.1 Z-9.917 I0. J3.9
 X120. Y96.1 Z-11.9 I0. J3.9
 X120. Y96.1 Z-12. I0. J3.9 F1000
 X120. Y96.1 I0. J3.9
G0 Z5.
 X215.
 Z2.
G1 Z0. F125
G3 X215. Y96.1 Z-1.983 I0. J3.9
 X215. Y96.1 Z-3.967 I0. J3.9
 X215. Y96.1 Z-5.95 I0. J3.9
 X215. Y96.1 Z-7.933 I0. J3.9
 X215. Y96.1 Z-9.917 I0. J3.9
 X215. Y96.1 Z-11.9 I0. J3.9
 X215. Y96.1 Z-12. I0. J3.9 F1000
 X215. Y96.1 I0. J3.9
G0 Z5.
 X310.
 Z2.
G1 Z0. F125
G3 X310. Y96.1 Z-1.983 I0. J3.9
 X310. Y96.1 Z-3.967 I0. J3.9
 X310. Y96.1 Z-5.95 I0. J3.9
 X310. Y96.1 Z-7.933 I0. J3.9
 X310. Y96.1 Z-9.917 I0. J3.9
 X310. Y96.1 Z-11.9 I0. J3.9
 X310. Y96.1 Z-12. I0. J3.9 F1000
 X310. Y96.1 I0. J3.9
G0 Z5.
 Y-3.9
 Z2.
G1 Z0. F125
G3 X310. Y-3.9 Z-1.983 I0. J3.9
 X310. Y-3.9 Z-3.967 I0. J3.9
 X310. Y-3.9 Z-5.95 I0. J3.9
 X310. Y-3.9 Z-7.933 I0. J3.9
 X310. Y-3.9 Z-9.917 I0. J3.9
 X310. Y-3.9 Z-11.9 I0. J3.9
 X310. Y-3.9 Z-12. I0. J3.9 F1000
 X310. Y-3.9 I0. J3.9
G0 Z5.
 Y-103.9
 Z2.
G1 Z0. F125
G3 X310. Y-103.9 Z-1.983 I0. J3.9
 X310. Y-103.9 Z-3.967 I0. J3.9
 X310. Y-103.9 Z-5.95 I0. J3.9
 X310. Y-103.9 Z-7.933 I0. J3.9
 X310. Y-103.9 Z-9.917 I0. J3.9
 X310. Y-103.9 Z-11.9 I0. J3.9
 X310. Y-103.9 Z-12. I0. J3.9 F1000
 X310. Y-103.9 I0. J3.9
G0 Z5.
 X215.
 Z2.
G1 Z0. F125
G3 X215. Y-103.9 Z-1.983 I0. J3.9
 X215. Y-103.9 Z-3.967 I0. J3.9
 X215. Y-103.9 Z-5.95 I0. J3.9
 X215. Y-103.9 Z-7.933 I0. J3.9
 X215. Y-103.9 Z-9.917 I0. J3.9
 X215. Y-103.9 Z-11.9 I0. J3.9
 X215. Y-103.9 Z-12. I0. J3.9 F1000
 X215. Y-103.9 I0. J3.9
G0 Z5.
 Y-3.9
 Z2.
G1 Z0. F125
G3 X215. Y-3.9 Z-1.983 I0. J3.9
 X215. Y-3.9 Z-3.967 I0. J3.9
 X215. Y-3.9 Z-5.95 I0. J3.9
 X215. Y-3.9 Z-7.933 I0. J3.9
 X215. Y-3.9 Z-9.917 I0. J3.9
 X215. Y-3.9 Z-11.9 I0. J3.9
 X215. Y-3.9 Z-12. I0. J3.9 F1000
 X215. Y-3.9 I0. J3.9
G0 Z5.
 X120.
 Z2.
G1 Z0. F125
G3 X120. Y-3.9 Z-1.983 I0. J3.9
 X120. Y-3.9 Z-3.967 I0. J3.9
 X120. Y-3.9 Z-5.95 I0. J3.9
 X120. Y-3.9 Z-7.933 I0. J3.9
 X120. Y-3.9 Z-9.917 I0. J3.9
 X120. Y-3.9 Z-11.9 I0. J3.9
 X120. Y-3.9 Z-12. I0. J3.9 F1000
 X120. Y-3.9 I0. J3.9
G0 Z5.
 Y-103.9
 Z2.
G1 Z0. F125
G3 X120. Y-103.9 Z-1.983 I0. J3.9
 X120. Y-103.9 Z-3.967 I0. J3.9
 X120. Y-103.9 Z-5.95 I0. J3.9
 X120. Y-103.9 Z-7.933 I0. J3.9
 X120. Y-103.9 Z-9.917 I0. J3.9
 X120. Y-103.9 Z-11.9 I0. J3.9
 X120. Y-103.9 Z-12. I0. J3.9 F1000
 X120. Y-103.9 I0. J3.9
G0 Z5.
 X25.
 Z2.
G1 Z0. F125
 Y-104. Z-0.016
G3 X25. Y-104. Z-4. I0. J4.
 X25. Y-104. Z-8. I0. J4.
 X25. Y-104. Z-12. I0. J4.
 X25. Y-104. I0. J4. F1000
G1 Y-103.9
G0 Z5.
 Y-3.9
 Z2.
G1 Z0. F125
 Y-4. Z-0.016
G3 X25. Y-4. Z-4. I0. J4.
 X25. Y-4. Z-8. I0. J4.
 X25. Y-4. Z-12. I0. J4.
 X25. Y-4. I0. J4. F1000
G1 Y-3.9
G0 Z5.
 Y96.1
 Z2.
G1 Z0. F125
 Y96. Z-0.016
G3 X25. Y96. Z-4. I0. J4.
 X25. Y96. Z-8. I0. J4.
 X25. Y96. Z-12. I0. J4.
 X25. Y96. I0. J4. F1000
G1 Y96.1
G0 Z5.
 X120.
 Z2.
G1 Z0. F125
 Y96. Z-0.016
G3 X120. Y96. Z-4. I0. J4.
 X120. Y96. Z-8. I0. J4.
 X120. Y96. Z-12. I0. J4.
 X120. Y96. I0. J4. F1000
G1 Y96.1
G0 Z5.
 X215.
 Z2.
G1 Z0. F125
 Y96. Z-0.016
G3 X215. Y96. Z-4. I0. J4.
 X215. Y96. Z-8. I0. J4.
 X215. Y96. Z-12. I0. J4.
 X215. Y96. I0. J4. F1000
G1 Y96.1
G0 Z5.
 X310.
 Z2.
G1 Z0. F125
 Y96. Z-0.016
G3 X310. Y96. Z-4. I0. J4.
 X310. Y96. Z-8. I0. J4.
 X310. Y96. Z-12. I0. J4.
 X310. Y96. I0. J4. F1000
G1 Y96.1
G0 Z5.
 Y-3.9
 Z2.
G1 Z0. F125
 Y-4. Z-0.016
G3 X310. Y-4. Z-4. I0. J4.
 X310. Y-4. Z-8. I0. J4.
 X310. Y-4. Z-12. I0. J4.
 X310. Y-4. I0. J4. F1000
G1 Y-3.9
G0 Z5.
 Y-103.9
 Z2.
G1 Z0. F125
 Y-104. Z-0.016
G3 X310. Y-104. Z-4. I0. J4.
 X310. Y-104. Z-8. I0. J4.
 X310. Y-104. Z-12. I0. J4.
 X310. Y-104. I0. J4. F1000
G1 Y-103.9
G0 Z5.
 X215.
 Z2.
G1 Z0. F125
 Y-104. Z-0.016
G3 X215. Y-104. Z-4. I0. J4.
 X215. Y-104. Z-8. I0. J4.
 X215. Y-104. Z-12. I0. J4.
 X215. Y-104. I0. J4. F1000
G1 Y-103.9
G0 Z5.
 Y-3.9
 Z2.
G1 Z0. F125
 Y-4. Z-0.016
G3 X215. Y-4. Z-4. I0. J4.
 X215. Y-4. Z-8. I0. J4.
 X215. Y-4. Z-12. I0. J4.
 X215. Y-4. I0. J4. F1000
G1 Y-3.9
G0 Z5.
 X120.
 Z2.
G1 Z0. F125
 Y-4. Z-0.016
G3 X120. Y-4. Z-4. I0. J4.
 X120. Y-4. Z-8. I0. J4.
 X120. Y-4. Z-12. I0. J4.
 X120. Y-4. I0. J4. F1000
G1 Y-3.9
G0 Z5.
 Y-103.9
 Z2.
G1 Z0. F125
 Y-104. Z-0.016
G3 X120. Y-104. Z-4. I0. J4.
 X120. Y-104. Z-8. I0. J4.
 X120. Y-104. Z-12. I0. J4.
 X120. Y-104. I0. J4. F1000
G1 Y-103.9
G0 Z5.
( ---- End of s2-pocket-f8-cnc-table-264x350-r3 ---- )
M9 M5
M30
G0 Z100
%