%
O1000 (CNC-TABLE-264X350X18-MATRIX-Y100-X95)
G17
( --- Initialisation AW --- )
G0 G40 G49 G80 G21
( --- Go To Machine Origin --- )
G54
(Tool # 12 - Diameter 8. D12 H12)
T12 M6 D12 H12
S10000 M4
M8
G54
( ---- Start of s3-clean-f8-cnc-table-264x350-0.1-r3 ---- )
G0 G54 Z0  ; move up to tool_z_level
G0 G54 A-0
G0 Z10
( --------------------------------------------- )
( S3-CLEAN-F8-CNC-TABLE-264X350-0.1-R3 - POCKET )
( --------------------------------------------- )
G0 X-17. Y-126.5 Z5.
 Z2.
G1 Z-0.1 F125
 Y124.511 F1000
G2 X-13.022 Y124.511 R1.989
G1 Y-124.511
G3 X-9.045 Y-124.511 R1.989
G1 Y124.511
G2 X-5.067 Y124.511 R1.989
G1 Y-124.511
G3 X-1.09 Y-124.511 R1.989
G1 Y124.511
G2 X2.888 Y124.511 R1.989
G1 Y-124.511
G3 X6.865 Y-124.511 R1.989
G1 Y124.511
G2 X10.843 Y124.511 R1.989
G1 Y-124.511
G3 X14.82 Y-124.511 R1.989
G1 Y124.511
G2 X18.798 Y124.511 R1.989
G1 Y-124.511
G3 X22.776 Y-124.511 R1.989
G1 Y124.511
G2 X26.753 Y124.511 R1.989
G1 Y-124.511
G3 X30.731 Y-124.511 R1.989
G1 Y124.511
G2 X34.708 Y124.511 R1.989
G1 Y-124.511
G3 X38.686 Y-124.511 R1.989
G1 Y124.511
G2 X42.663 Y124.511 R1.989
G1 Y-124.511
G3 X46.641 Y-124.511 R1.989
G1 Y124.511
G2 X50.618 Y124.511 R1.989
G1 Y-124.511
G3 X54.596 Y-124.511 R1.989
G1 Y124.511
G2 X58.573 Y124.511 R1.989
G1 Y-124.511
G3 X62.551 Y-124.511 R1.989
G1 Y124.511
G2 X66.528 Y124.511 R1.989
G1 Y-124.511
G3 X70.506 Y-124.511 R1.989
G1 Y124.511
G2 X74.483 Y124.511 R1.989
G1 Y-124.511
G3 X78.461 Y-124.511 R1.989
G1 Y124.511
G2 X82.438 Y124.511 R1.989
G1 Y-124.511
G3 X86.416 Y-124.511 R1.989
G1 Y124.511
G2 X90.393 Y124.511 R1.989
G1 Y-124.511
G3 X94.371 Y-124.511 R1.989
G1 Y124.511
G2 X98.348 Y124.511 R1.989
G1 Y-124.511
G3 X102.326 Y-124.511 R1.989
G1 Y124.511
G2 X106.303 Y124.511 R1.989
G1 Y-124.511
G3 X110.281 Y-124.511 R1.989
G1 Y124.511
G2 X114.259 Y124.511 R1.989
G1 Y-124.511
G3 X118.236 Y-124.511 R1.989
G1 Y124.511
G2 X122.214 Y124.511 R1.989
G1 Y-124.511
G3 X126.191 Y-124.511 R1.989
G1 Y124.511
G2 X130.169 Y124.511 R1.989
G1 Y-124.511
G3 X134.146 Y-124.511 R1.989
G1 Y124.511
G2 X138.124 Y124.511 R1.989
G1 Y-124.511
G3 X142.101 Y-124.511 R1.989
G1 Y124.511
G2 X146.079 Y124.511 R1.989
G1 Y-124.511
G3 X150.056 Y-124.511 R1.989
G1 Y124.511
G2 X154.034 Y124.511 R1.989
G1 Y-124.511
G3 X158.011 Y-124.511 R1.989
G1 Y124.511
G2 X161.989 Y124.511 R1.989
G1 Y-124.511
G3 X165.966 Y-124.511 R1.989
G1 Y124.511
G2 X169.944 Y124.511 R1.989
G1 Y-124.511
G3 X173.921 Y-124.511 R1.989
G1 Y124.511
G2 X177.899 Y124.511 R1.989
G1 Y-124.511
G3 X181.876 Y-124.511 R1.989
G1 Y124.511
G2 X185.854 Y124.511 R1.989
G1 Y-124.511
G3 X189.831 Y-124.511 R1.989
G1 Y124.511
G2 X193.809 Y124.511 R1.989
G1 Y-124.511
G3 X197.786 Y-124.511 R1.989
G1 Y124.511
G2 X201.764 Y124.511 R1.989
G1 Y-124.511
G3 X205.741 Y-124.511 R1.989
G1 Y124.511
G2 X209.719 Y124.511 R1.989
G1 Y-124.511
G3 X213.697 Y-124.511 R1.989
G1 Y124.511
G2 X217.674 Y124.511 R1.989
G1 Y-124.511
G3 X221.652 Y-124.511 R1.989
G1 Y124.511
G2 X225.629 Y124.511 R1.989
G1 Y-124.511
G3 X229.607 Y-124.511 R1.989
G1 Y124.511
G2 X233.584 Y124.511 R1.989
G1 Y-124.511
G3 X237.562 Y-124.511 R1.989
G1 Y124.511
G2 X241.539 Y124.511 R1.989
G1 Y-124.511
G3 X245.517 Y-124.511 R1.989
G1 Y124.511
G2 X249.494 Y124.511 R1.989
G1 Y-124.511
G3 X253.472 Y-124.511 R1.989
G1 Y124.511
G2 X257.449 Y124.511 R1.989
G1 Y-124.511
G3 X261.427 Y-124.511 R1.989
G1 Y124.511
G2 X265.404 Y124.511 R1.989
G1 Y-124.511
G3 X269.382 Y-124.511 R1.989
G1 Y124.511
G2 X273.359 Y124.511 R1.989
G1 Y-124.511
G3 X277.337 Y-124.511 R1.989
G1 Y124.511
G2 X281.314 Y124.511 R1.989
G1 Y-124.511
G3 X285.292 Y-124.511 R1.989
G1 Y124.511
G2 X289.269 Y124.511 R1.989
G1 Y-124.511
G3 X293.247 Y-124.511 R1.989
G1 Y124.511
G2 X297.224 Y124.511 R1.989
G1 Y-124.511
G3 X301.202 Y-124.511 R1.989
G1 Y124.511
G2 X305.18 Y124.511 R1.989
G1 Y-124.511
G3 X309.157 Y-124.511 R1.989
G1 Y124.511
G2 X313.135 Y124.511 R1.989
G1 Y-124.511
G3 X317.112 Y-124.511 R1.989
G1 Y124.511
G2 X321.09 Y124.511 R1.989
G1 Y-124.511
G3 X325.067 Y-124.511 R1.989
G1 Y124.511
G2 X329.045 Y124.511 R1.989
G1 Y-124.511
G3 X333.022 Y-124.511 R1.989
G1 Y124.511
G2 X337. Y124.511 R1.989
G1 Y-126.5
G0 Z5.
( ---- End of s3-clean-f8-cnc-table-264x350-0.1-r3 ---- )
M9 M5
M30
G0 Z100
%