%
O1000 (CNC-TABLE-264X350X18-MATRIX-Y100-X95)
G17
( --- Initialisation AW --- )
G0 G40 G49 G80 G21
( --- Go To Machine Origin --- )
G54
(Tool # 1 - Diameter 4. D1 H1)
T1 M6 D1 H1
S24000 M4
M8
G54
( ---- Start of s5-pocket-f4-cnc-table-264x350-r3-1 ---- )
G0 G54 Z0  ; move up to tool_z_level
G0 G54 A-0
G0 Z10
( --------------------------------------------- )
( S5-POCKET-F4-CNC-TABLE-264X350-R3-1 - PROFILE )
( --------------------------------------------- )
G0 X-8.183 Y0.556 Z5.
 Z2.
G1 Z0. F480
G3 X-8.183 Y0.556 Z-1.993 I-1.817 J-0.556
 X-8.183 Y0.556 Z-3.987 I-1.817 J-0.556
 X-8.183 Y0.556 Z-5.98 I-1.817 J-0.556
 X-8.183 Y0.556 Z-7.973 I-1.817 J-0.556
 X-8.183 Y0.556 Z-9.967 I-1.817 J-0.556
 X-8.183 Y0.556 Z-11.96 I-1.817 J-0.556
 X-8.183 Y0.556 Z-13.953 I-1.817 J-0.556
 X-8.183 Y0.556 Z-15.947 I-1.817 J-0.556
 X-8.183 Y0.556 Z-17.94 I-1.817 J-0.556
 X-8.183 Y0.556 Z-19.933 I-1.817 J-0.556
 X-8.183 Y0.556 Z-21.927 I-1.817 J-0.556
 X-8.183 Y0.556 Z-23.92 I-1.817 J-0.556
 X-8.183 Y0.556 Z-25.913 I-1.817 J-0.556
 X-8.183 Y0.556 Z-27.907 I-1.817 J-0.556
 X-8.183 Y0.556 Z-29.9 I-1.817 J-0.556
 X-8.183 Y0.556 Z-30. I-1.817 J-0.556 F4800
 X-8.183 Y0.556 I-1.817 J-0.556
G0 Z5.
 X328.817
 Z2.
G1 Z0. F480
G3 X328.817 Y0.556 Z-1.993 I-1.817 J-0.556
 X328.817 Y0.556 Z-3.987 I-1.817 J-0.556
 X328.817 Y0.556 Z-5.98 I-1.817 J-0.556
 X328.817 Y0.556 Z-7.973 I-1.817 J-0.556
 X328.817 Y0.556 Z-9.967 I-1.817 J-0.556
 X328.817 Y0.556 Z-11.96 I-1.817 J-0.556
 X328.817 Y0.556 Z-13.953 I-1.817 J-0.556
 X328.817 Y0.556 Z-15.947 I-1.817 J-0.556
 X328.817 Y0.556 Z-17.94 I-1.817 J-0.556
 X328.817 Y0.556 Z-19.933 I-1.817 J-0.556
 X328.817 Y0.556 Z-21.927 I-1.817 J-0.556
 X328.817 Y0.556 Z-23.92 I-1.817 J-0.556
 X328.817 Y0.556 Z-25.913 I-1.817 J-0.556
 X328.817 Y0.556 Z-27.907 I-1.817 J-0.556
 X328.817 Y0.556 Z-29.9 I-1.817 J-0.556
 X328.817 Y0.556 Z-30. I-1.817 J-0.556 F4800
 X328.817 Y0.556 I-1.817 J-0.556
G0 Z5.
 X-8.183
 Z2.
G1 Z0. F480
 X-8.087 Y0.585 Z-0.03
G3 X-8.087 Y0.585 Z-3.75 I-1.913 J-0.585
 X-8.087 Y0.585 Z-7.5 I-1.913 J-0.585
 X-8.087 Y0.585 Z-11.25 I-1.913 J-0.585
 X-8.087 Y0.585 Z-15. I-1.913 J-0.585
 X-8.087 Y0.585 Z-18.75 I-1.913 J-0.585
 X-8.087 Y0.585 Z-22.5 I-1.913 J-0.585
 X-8.087 Y0.585 Z-26.25 I-1.913 J-0.585
 X-8.087 Y0.585 Z-30. I-1.913 J-0.585
 X-8.087 Y0.585 I-1.913 J-0.585 F4800
G1 X-8.183 Y0.556
G0 Z5.
 X328.817
 Z2.
G1 Z0. F480
 X328.913 Y0.585 Z-0.03
G3 X328.913 Y0.585 Z-3.75 I-1.913 J-0.585
 X328.913 Y0.585 Z-7.5 I-1.913 J-0.585
 X328.913 Y0.585 Z-11.25 I-1.913 J-0.585
 X328.913 Y0.585 Z-15. I-1.913 J-0.585
 X328.913 Y0.585 Z-18.75 I-1.913 J-0.585
 X328.913 Y0.585 Z-22.5 I-1.913 J-0.585
 X328.913 Y0.585 Z-26.25 I-1.913 J-0.585
 X328.913 Y0.585 Z-30. I-1.913 J-0.585
 X328.913 Y0.585 I-1.913 J-0.585 F4800
G1 X328.817 Y0.556
G0 Z5.
( ---- End of s5-pocket-f4-cnc-table-264x350-r3-1 ---- )
M9 M5
M30
G0 Z100
%